X: 1
T: Eamonn Coyne's
M: 4/4
L: 1/8
R: reel
K: Gmaj
BcdB G3B | ADFA dcBA | B2dB GFGB | ADFA G3A :|
|: BGBd gfed | cBce agfe | fgaf d^cdf | eA^ce d2ef | 
gfed ^cdef | afge fgdc | BcdB GFGB |1 A2FA G3 A:|2 A2FA G2dc||
